assets/fc/fc-calendar.svg

<svg xmlns="http://www.w3.org/2000/svg" width="100%" height="100%" viewBox="0 0 48 48"><path fill="#CFD8DC" d="M5 38V14h38v24c0 2.2-1.8 4-4 4H9c-2.2 0-4-1.8-4-4z"/><path fill="#F44336" d="M43 10v6H5v-6c0-2.2 1.8-4 4-4h30c2.2 0 4 1.8 4 4z"/><g fill="#B71C1C"><circle cx="33" cy="10" r="3"/><circle cx="15" cy="10" r="3"/></g><g fill="#B0BEC5"><path d="M33 3c-1.1 0-2 .9-2 2v5c0 1.1.9 2 2 2s2-.9 2-2V5c0-1.1-.9-2-2-2zM15 3c-1.1 0-2 .9-2 2v5c0 1.1.9 2 2 2s2-.9 2-2V5c0-1.1-.9-2-2-2z"/></g><g fill="#90A4AE"><path d="M13 20h4v4h-4zM19 20h4v4h-4zM25 20h4v4h-4zM31 20h4v4h-4zM13 26h4v4h-4zM19 26h4v4h-4zM25 26h4v4h-4zM31 26h4v4h-4zM13 32h4v4h-4zM19 32h4v4h-4zM25 32h4v4h-4zM31 32h4v4h-4z"/></g></svg>

<svg xmlns="http://www.w3.org/2000/svg" width="100%" height="100%" viewBox="0 0 48 48"><path fill="#CFD8DC" d="M5,38V14h38v24c0,2.2-1.8,4-4,4H9C6.8,42,5,40.2,5,38z"/><path fill="#F44336" d="M43,10v6H5v-6c0-2.2,1.8-4,4-4h30C41.2,6,43,7.8,43,10z"/><g fill="#B71C1C"><circle cx="33" cy="10" r="3"/><circle cx="15" cy="10" r="3"/></g><g fill="#B0BEC5"><path d="M33 3c-1.1 0-2 .9-2 2v5c0 1.1.9 2 2 2s2-.9 2-2V5C35 3.9 34.1 3 33 3zM15 3c-1.1 0-2 .9-2 2v5c0 1.1.9 2 2 2s2-.9 2-2V5C17 3.9 16.1 3 15 3z"/></g><g fill="#90A4AE"><path d="M13 20H17V24H13zM19 20H23V24H19zM25 20H29V24H25zM31 20H35V24H31zM13 26H17V30H13zM19 26H23V30H19zM25 26H29V30H25zM31 26H35V30H31zM13 32H17V36H13zM19 32H23V36H19zM25 32H29V36H25zM31 32H35V36H31z"/></g></svg>
